X: 34348
T: Return To Miltown, The
R: reel
M: 4/4
K: Ddorian
|:D2AD EDDB,|C2EC FCEC|D2AD EDDB,|CDEG AEGE|
D2AD EDDB,|C2EC FCEC|FAFD EzED|CDEG AEGE:|
K:Dmaj
|:GAde f2ed|cdef (3gag fe|dDGA f2ed|=cAGE ED~D2|
GAde f2ed|cdef (3gag fe|fafd ezed|=cAGEED~D2:|

